!!!OTL: Taishan jing
!!!ARE: Asia, China,ÿShandong, Xintai
!! III, 386
!!!SCT: C1575
!!!YEM: Copyright 1995, estate of Helmut Schaffrath.
**kern
*ICvox
*Ivox
!! Mixed meters:  4/4; 2/4
*M4/4
*k[]
*C:
{4cc
8dd
8ee
2dd
=1
8ee
8ee
8dd
8ee
8dd
16gg
16ee
[4dd
=2
4dd]}
{4ee
8dd
8ee
8dd
8cc
=3
8cc
8a
8r
8dd
2cc}
=4
{8cc
16cc
16a
8cc
8dd
8.a
16g
8e
8g
=5
8r
8a
8r
16b
16a
8.g
16a
[4g
=6
*M2/4
2g]}
=7
{8.g
16a
8g
8a
=8
*M4/4
4cc
8cc
8dd
8r
8gg
8ee
8dd
=9
*M2/4
8gg
16ee
16dd
8ee
8dd}
=10
{8r
8ee
8dd
8ee
=11
*M4/4
16dd
16ee
16dd
16cc
8a
8cc
8r
8dd
8r
16ee
16dd
=12
8.b
16dd
2.cc}
=13
{8.ee
16dd
8ee
8dd
8.b
16dd
8cc
8cc}
=14
{8r
4cc
8dd
8.ee
16dd
8cc
8cc
=15
8.dd
16b
16a
16g
8a
8r
4g
8g
=16
*M2/4
8.g
16a
16cc
16a
8cc}
=17
{8r
8g
8e
8d
=18
*M4/4
16.e
32g
16e
16d
8c
16d
16e
2c}
=19
{8dd
16dd
16a
8cc
8a
8cc
16cc
16a
8cc
8dd
=20
8.a
16g
8e
8g
8r
8a
8r
16b
16a
=21
*M2/4
8.g
16a
4g}
=22
{8.g
16a
8g
8a
=23
*M4/4
4cc
8cc
8dd
8r
8gg
8ee
8dd
=24
*M2/4
8ee
16ee
16dd
8ee
8dd}
=25
{8r
8ee
8dd
8ee
=26
*M4/4
16dd
16ee
16dd
16cc
8a
8cc
8r
8dd
8r
16ee
16dd
=27
8.b
16dd
4.cc}
{8ee
8ee
16ee
16dd
=28
8cc
8dd
16cc
16dd
16cc
16a
8.g
16a
16cc
16a
8cc}
=29
{8r
8cc
16a
16cc
16a
16g
8.a
16g
8e
8d
=30
8r
4g
8d
16.e
32g
16e
16d
8c
16d
16e
=31
*M2/4
2c}
=32
{8.g
16a
8.g
16a
=33
*M4/4
4cc
8cc
8dd
8r
8gg
8ee
8dd
=34
*M2/4
8gg
16ee
16dd
8ee
8dd}
=35
{8r
8ee
8dd
8ee
=36
*M4/4
16dd
16ee
16dd
16cc
8.a
16cc
8r
8dd
8r
16ee
16dd
=37
8.b
16dd
2cc
4r}
=38
*M2/4
{8.g
16a
8g
8a
=39
8g
8cc
8.g
16g
=40
8g
8a
4g}
=41
{8g
8a
8.g
16cc
=42
8cc
16e
16a
4g}
=43
{8.g
16a
8g
8a
=44
8cc
16e
16a
4g}
=45
{8.g
16a
8g
8a
=46
8g
8cc
4g}
=47
{8g
8a
8g
8a
=48
8cc
16e
16a
4g}
=49
{8.g
16a
8g
8a
=50
8g
16g
16cc
4g}
=51
{8.g
16a
8g
8a
=52
8cc
16e
16a
4g}
=53
{8.g
16a
8g
8a
=54
8g
8cc
4cc}
=55
{8dd
16ee
16dd
4cc
=56
4cc
8.cc
16cc
=57
8.dd
16cc
4cc
=58
8dd
16ee
16dd
16cc
16dd
8cc}
=59
{8r
8ee
8dd
16ee
16dd
=60
*M4/4
8cc
8dd
16cc
16dd
16cc
16a
8.g
16a
16cc
16a
8cc}
=61
{8r
8cc
8a
8g
8.a
16g
8e
8d
=62
8r
4g
8d
16.e
32g
16e
16d
8c
16d
16e
=63
*M2/4
2c}
=64
{8.g
16a
8g
8a
=65
*M4/4
4cc
8cc
8dd
8r
8gg
8ee
8dd
=66
8gg
16ee
16dd
8ee
8dd
8r}
{8ee
8dd
8ee
=67
16dd
16ee
16dd
16cc
8a
8cc
8r}
{8dd
8r
16ee
16dd
=68
8.b
16dd
2cc
4r}
==
!!!AGN: Xiaodiao, Bianguan diao
!!!AMT: irregular
!!!AIN: vox
!!!EED: Helmut Schaffrath
!!!EEV: 1.0
*-
!!!ONB: Tied note syntax fixed by Craig Sapp, 2004/05/03/
